X:6601
T:The Cairdin' O't
O:england
M:4/4
L:1/8
Q:212
K:A
EA3 Bc3|de2a fecB|Adcd fecB|AGAB cB2B|cdcd efga|fecB AAGF|EA3 BceB|dc2A2A2E2
W: A A D A B E D A D A E A
A3 Bc3|de2a fecB|Adcd fecB|AGAB cB2B|cdcd efga|fecB AAGF|EA3 BceB|dc2A2A2a|f
W: A A D A B E D A D A E A
ecA ce2a|fecA ce2d|cdcd efga|fg2e2e2d|cdcd efga|fecB AAGF|EA3 BceB|ec2A2A2a|f
W: A A Bm B E D A D A E A
ecA ce2a|fecA ce2d|cdcd efga|fg2e2e2d|cdcd efga|fecB AAGF|EA3 BceB|ec2A2A2
W: A A Bm B E D A D A E A


